X:1
T:Title
%%score { ( 1 3 ) | ( 2 4 ) }
L:1/8
Q:1/4=90
M:4/4
K:Ab
V:1 treble nm="Grand Piano"
V:3 treble 
V:2 bass 
V:4 bass 
V:1
 [CE]2 [CA]>[DB] [Ec]3 [Fd] | cBFG [DF]2 [CE]2 | [CA]2 [DG]>[EA] [Fd]2 c2 | BA[=DG][DA] [EB]4 | %4
w: Geo.~C.~Stebbins * * * *||||
 [CE]2 [CA]>[DB] [Ec]3 [Fd] | cBFd d2 c2 | e2 [Ec][EA] [DF][DG][EA][Fd] | c4 z4 | %8
w: ||||
[M:6/8] [Ec]3- [Ec][DB][CA] | [CE]3 [CA]3 | c3 cBc | [Fe]3 [Fd]3 | [Fd]2 [Fd] [Fd][Ec][B,DB] | %13
w: |||||
 [B,DF]3 [B,DG]3 | [A,CA][B,CG][CFA] [=DAc]2 [FAB] | e6 | [Ec]3- [Ec][DB][CA] | [CE]3 [CA]3 | %18
w: |||||
 c3 [Ac][Ad][Ae] | [Af]3 [Fd]3 | [Fd]2 [Fd] [Fd][Fc][FB] | [Ae]3 [CFA]2 [FAd] | %22
w: ||||
 .[EAc]3 [DGB]2 [CEA] | [CEA]6 |] %24
w: ||
V:2
 [A,,A,]2 [A,,E,]>[A,,E,] [A,,A,]3 [A,,A,] | [E,A,E][E,G,D][E,A,D][E,B,E] [A,,A,]2 [A,,A,]2 | %2
 [A,,E,]2 [B,,E,]>[C,A,] [D,A,]2 [E,A,E]2 | [F,A,=D][F,B,D][B,,B,][B,,B,] [E,G,]4 | %4
 [A,,A,]2 [A,,E,]>[A,,E,] [A,,A,]3 [A,,A,] | %5
 [E,A,E][E,G,D][E,G,D][K:treble][E,G,F] [A,F]2[K:bass] [A,E]2 | %6
 [A,CE]2 [A,,A,][C,A,] [D,A,][B,,E,][C,A,][D,A,] | .[E,E]2 z2 z4 | %8
[M:6/8] [A,,A,]3 [A,,A,][A,,E,][A,,E,] | [A,,A,]3 [A,,A,]3 | [A,E]3 [F,=A,E][F,G,E][F,A,E] | %11
 [B,,B,]3 [B,,B,]3 | [B,,B,]2 [B,,B,] [B,,B,][C,=A,]D, | B,,3 E,3 | F,F,F, B,,2 =D, | z B,C D3 | %16
 [A,,A,]3 [A,,A,][A,,E,][A,,E,] | [A,,A,]3 [A,,A,]3 | [A,E]3 [_G,E][F,D][E,C] | [D,A,]3 [D,A,]3 | %20
 [B,,B,]2 [B,,B,] [B,,B,][C,=A,][D,B,] | [C,A,]3 F,2 B,, | z[K:treble] GF[K:bass] E,2 A,, | A,,6 |] %24
V:3
 x8 | x8 | x8 | x8 | x8 | x8 | x8 | z =DEB [CA]4 |[M:6/8] x6 | x6 | x6 | x6 | x6 | x6 | x6 | %15
 .[EG]2 A G3 | x6 | x6 | x6 | x6 | x6 | x6 | x6 | x6 |] %24
V:4
 x8 | x8 | x8 | x8 | x8 | x3[K:treble] x3[K:bass] x2 | x8 | A,-[F,A,-][E,A,][E,G,D] [A,,A,]4 | %8
[M:6/8] x6 | x6 | x6 | x6 | x6 | x6 | x6 | E,6 | x6 | x6 | x6 | x6 | x6 | x6 | %22
 E,3[K:treble][K:bass] z3 | x6 |] %24

